src/components/images/icons/fighting.svg

<svg width="512" height="512" viewBox="0 0 512 512" fill="none" xmlns="http://www.w3.org/2000/svg">
<path fill-rule="evenodd" clip-rule="evenodd" d="M88.2336 42.5656C94.4299 18.1014 116.593 0 142.983 0C162.778 0 180.195 10.1847 190.279 25.6H206.792C217.051 15.0716 231.384 8.53333 247.245 8.53333C270.499 8.53333 290.471 22.5882 299.129 42.6667H312.954C321.617 37.2585 331.853 34.1333 342.818 34.1333C366.073 34.1333 386.044 48.1882 394.702 68.2667H432.297C432.618 68.2667 432.919 68.3532 433.178 68.5041C434.895 68.347 436.634 68.2667 438.391 68.2667C469.582 68.2667 494.866 93.5514 494.866 124.742V294.086L494.867 294.4L494.866 294.714V297.153C494.866 298.186 494.838 299.215 494.782 300.239C491.384 417.717 385.749 512 255.933 512C123.974 512 17 414.577 17 294.4C17 236.391 41.9249 183.683 82.5535 144.675C82.4522 201.228 83.4074 259.694 87.8107 258.691C99.6011 256.003 90.3891 80.8395 88.2336 42.5656Z" fill="white"/>
</svg>

<svg width="512" height="512" fill="none" xmlns="http://www.w3.org/2000/svg"><path fill-rule="evenodd" clip-rule="evenodd" d="M88.234 42.566C94.43 18.1 116.593 0 142.983 0c19.795 0 37.212 10.185 47.296 25.6h16.513c10.259-10.528 24.592-17.067 40.453-17.067 23.254 0 43.226 14.055 51.884 34.134h13.825c8.663-5.409 18.899-8.534 29.864-8.534 23.255 0 43.226 14.055 51.884 34.134h37.595c.321 0 .622.086.881.237a57.205 57.205 0 0 1 5.213-.237c31.191 0 56.475 25.284 56.475 56.475v169.344l.001.314-.001.314v2.439c0 1.033-.028 2.062-.084 3.086C491.384 417.717 385.749 512 255.933 512 123.974 512 17 414.577 17 294.4c0-58.009 24.925-110.717 65.553-149.725-.1 56.553.854 115.019 5.258 114.016 11.79-2.688 2.578-177.851.423-216.125z" fill="#fff"/></svg>
